X:250
T:Mr C.Clark’s Hornpipe TS.250
C:”1812″ in brackets follows title in MS
M:C|
L:1/8
Q:1/2=90
S:Thomas Sands’ MS,1810,Lincolnshire
R:.hornpipe
O:England;Lincolnshire
Z:vmp.Ruairidh Greig, 2011
K:Bb
FE|DB,DF BFDF|egec BAGF|AFcA ecdB|Ac F2F2FE|
DB,DF BFDF|egec BAGF|Bgec dBcA|B2B2B2:|
|:fe|dBfd g2>a2|bfdB gfdB|AFcA ecdB|AcF2F2E2|
DBGB GBEB|Acec BAGF|Ggec dBcA|B2B2B2:|]

